X:60
T:The Shores of Loch Bee
M:C
L:1/8
Q:1/4=120
F:http://blackrosetheband.googlepages.com/ABCTUNES.ABC May 2009
Z:Jack Campin, http://www.campin.me.uk/
F:Jack Campin's Nine-Note Tunebook
% last edit 26-03-2013
N:use the E in bar 2 as an alternate if it's easier
N:this is the original key
K:D
A   |   "D"D>D      DF     A>F EF/E/|     D>[CE] DF       A3\
F/A/|   "G"BA/B/    d>A "D"Bd  AB/A/|
                                     [1   FD     FA/F/ "A"E3:|\
                                     [2   FD  "A"FE/F/ "D"D3|:\
A   |   "G"B>c      BA     Bd  dF   |  "D"A>B    AF       A3
F/A/|[1 "G"B>c      BA     Bd  dB/A/|  "D"FD     FA/F/ "A"E3:|\
     [2 "G"BA/B/ "D"d>A    Bd  AB/A/|     FD  "A"FE/F/ "D"D3|]


% == English songs ==========================================================

